!!!COM: Schubert, Franz
!!!CDT: 1797/01/31-1828/11/19
!!!SCT: D. 365
!!!OPR: 36 Originaltänze
!!!OPS: 9
!!!ONM: 30
**kern	**kern	**dynam
*part1	*part1	*part1
*staff2	*staff1	*
*>[A,B,B1,B,B2]	*>[A,B,B1,B,B2]	*>[A,B,B1,B,B2]
*clefG2	*clefG2	*
*k[f#c#g#]	*k[f#c#g#]	*
*A:	*A:	*
*M3/4	*M3/4	*
=1	=1	=1
*>A	*>A	*>A
4G#	8ff#L	p
.	8fff#	.
4d 4e 4b	8ff#	.
.	8fff#	.
4d 4e 4b	8ff#	.
.	8fff#J	.
=2	=2	=2
4A	(4ff# 4fff#	.
4c# 4e 4a	4ee) 4eee	.
4c# 4e 4a	4cc#' 4ccc#	.
*clefF4	*	*
=3	=3	=3
4E	(4cc# 4ccc#	.
*clefG2	*	*
4d 4e 4g#	4b) 4bb	.
4d 4e 4g#	8cc#'L 8ccc#	.
.	8dd'J 8ddd	.
=4	=4	=4
4A	(2ee 2eee	.
4c# 4e 4a	.	.
4c# 4e 4a	4cc#) 4ccc#	.
=5	=5	=5
4G#	8ff#L	.
.	8fff#	.
4d 4e 4b	8ff#	.
.	8fff#	.
4d 4e 4b	8ff#	.
.	8fff#J	.
=6	=6	=6
4A	(4ff# 4fff#	.
4c# 4e 4a	4ee) 4eee	.
4c# 4e 4a	4cc#' 4ccc#	.
*clefF4	*	*
=7	=7	=7
4E	(4cc# 4ccc#	.
*clefG2	*	*
4d 4e 4g#	4b) 4bb	.
4d 4e 4g#	8cc#'L 8ccc#	.
.	8b'J 8bb	.
=8	=8	=8
4A	4a 4aa	.
4c# 4e 4a	4r	.
4c# 4e 4a	4r	.
*clefF4	*	*
=9!|:	=9!|:	=9!|:
*>B	*>B	*>B
4D#X	8cc#L	fp
.	8ccc#	.
4A 4B 4f#	8cc#	.
.	8ccc#	.
4A 4B 4f#	8cc#	.
.	8ccc#J	.
=10	=10	=10
4E	(4cc# 4ccc#	.
4G# 4B 4e	4b) 4bb	.
4G# 4B 4e	4g#' 4gg#	.
=11	=11	=11
4D#X	8cc#L	fp
.	8ccc#	.
4A 4B 4f#	8cc#	.
.	8ccc#	.
4A 4B 4f#	8cc#	.
.	8ccc#J	.
=12	=12	=12
4E	(4cc# 4ccc#	.
4G# 4B 4e	4b) 4bb	.
4G# 4B 4e	4g#' 4gg#	.
=13	=13	=13
4E	4ff# 4fff#	.
*clefG2	*	*
4dni 4e 4g# 4b	4ff# 4fff#	.
4d 4e 4g# 4b	4gg# 4ggg#	.
*clefF4	*	*
=14	=14	=14
4E	(4gg#^ 4ggg#	.
*clefG2	*	*
4c# 4e 4a	4bb 4bbb	.
4c# 4e 4a	8aa) 8aaa	.
.	8r	.
*clefF4	*	*
=15	=15	=15
4E	(4b 4bb	.
*clefG2	*	*
4d 4e 4g#	4.dd^ 4.ddd	.
4d 4e 4g#	.	.
.	8cc#) 8ccc#	.
=16	=16	=16
*>B1	*>B1	*>B1
4A	4a 4aa	.
4c# 4e 4a	4r	.
4c# 4e 4a	4r	.
=17:|!	=17:|!	=17:|!
*>B2	*>B2	*>B2
4A	4a 4aa	.
4c# 4e 4a	4r	.
4r	4r	.
==	==	==
*-	*-	*-
!!!system-decoration: {(s1,s2)}
!!!RDF**kern: i = editorial accidental
!!!AGN: Walzer
!!!EED: Wolfgang Drescher
!!!END: 2025/12/02
!!!ENC: Wolfgang Drescher
!!!EEV: 2025/12/02
!!!title: @{OPR}, @{SCT} №@{ONM}